vsi/verified_light.svg

<svg viewBox="0 0 16 16" fill="none" xmlns="http://www.w3.org/2000/svg" height="1em" width="1em">
  <path fill-rule="evenodd" clip-rule="evenodd" d="M7.6703 14.72H8.3803L10.1003 13H12.5003L13.0003 12.5V10.08L14.7403 8.36004V7.65004L13.0303 5.93004V3.49004L12.5303 3.00004H10.1003L8.3803 1.29004H7.6703L6.0003 3.00004H3.5303L3.0003 3.50004V5.93004L1.3103 7.65004V8.36004L3.0003 10.08V12.5L3.5303 13H6.0003L7.6703 14.72ZM6.1603 12H4.0003V9.87004L3.8803 9.52004L2.3703 8.00004L3.8503 6.49004L4.0003 6.14004V4.00004H6.1603L6.5203 3.86004L8.0003 2.35004L9.5403 3.86004L9.8903 4.00004H12.0003V6.14004L12.1703 6.49004L13.6903 8.00004L12.1403 9.52004L12.0003 9.87004V12H9.8903L9.5103 12.15L8.0003 13.66L6.5203 12.14L6.1603 12ZM6.73034 10.4799H7.44034L11.2103 6.71L10.5003 6L7.09034 9.41991L5.7103 8.03984L5.0003 8.74984L6.73034 10.4799Z" fill="#424242"/>
</svg>

<svg viewBox="0 0 16 16" fill="none" xmlns="http://www.w3.org/2000/svg" height="1em" width="1em">
  <path fill-rule="evenodd" clip-rule="evenodd" d="M7.67 14.72h.71L10.1 13h2.4l.5-.5v-2.42l1.74-1.72v-.71l-1.71-1.72V3.49l-.5-.49H10.1L8.38 1.29h-.71L6 3H3.53L3 3.5v2.43L1.31 7.65v.71L3 10.08v2.42l.53.5H6l1.67 1.72ZM6.16 12H4V9.87l-.12-.35L2.37 8l1.48-1.51.15-.35V4h2.16l.36-.14L8 2.35l1.54 1.51.35.14H12v2.14l.17.35L13.69 8l-1.55 1.52-.14.35V12H9.89l-.38.15L8 13.66l-1.48-1.52-.36-.14Zm.57-1.52h.71l3.77-3.77L10.5 6 7.09 9.42 5.71 8.04 5 8.75l1.73 1.73Z" fill="#424242"/>
</svg>
